X: 22300
T: La Ronde Des Milloraines
R: jig
M: 6/8
K: Dminor
d^cd efg|aba gfe|[M:9/8] f2 e d^cd A2 A|[M:6/8]
d^cd efg|aba gfe|[M:9/8] f2 e d2 ^c d2:|
ddd B2 B|BAG A2 D|EFG ABA|GFE F2 D|
ddd B2 B|BAG A3|EFG ABA|1 GFE D3:|2 GFE D2||

